X: 15
T: Rakes Of Kildare, The
Z: Sean Perry
S: https://thesession.org/tunes/84#setting50819
R: jig
M: 6/8
L: 1/8
K: Ddor
G,|:A,DD DCD|EFG A2B|cBc AcA|GED CA,G,|
A,DD DCD|EFG A2B|cBA GEC|1 DED D2C:|2 DED D2d||
dAd dAd|dAd e2d|cBc AcA|GED C zd|
dAd dAd|dAd e2d|cBA GEC|D3 D zd|
dAd dAd|dAd e2d|cBc AcA|GED CA,G,|
A,G,A, C2D|EDC EFG|ABc GEC|EDC D2||

%-------------------- TUNE SEPARATOR --------------------%

